public_html/images/ruler.svg

<?xml version="1.0" encoding="utf-8"?>
<!-- Generated by IcoMoon.io -->
<!DOCTYPE svg PUBLIC "-//W3C//DTD SVG 1.1//EN" "http://www.w3.org/Graphics/SVG/1.1/DTD/svg11.dtd">
<svg version="1.1" xmlns="http://www.w3.org/2000/svg" xmlns:xlink="http://www.w3.org/1999/xlink" width="32" height="32" viewBox="0 0 32 32">
<path fill="#ffffff" d="M23.023 29.006v-2.029h-1.013v2.029h-1.014v-2.029h-1.016v2.029h-0.951v-3.043h-1.014v3.043h-1.014v-2.029h-1.014v2.029h-0.951v-2.029h-1.014v2.029h-1.015v-3.043h-1.014v3.043h-1.014v-2.029h-0.949v2.029h-1.014v-2.029h-1.015v2.029h-1.013v-3.043h-0.951v3.043h-3.042v-25.011l25.011 25.011h-4.983zM6.988 13.584v11.365h11.364l-11.364-11.365z"></path>
</svg>

<?xml version="1.0" encoding="utf-8"?>
<!-- Generator: Adobe Illustrator 16.0.3, SVG Export Plug-In . SVG Version: 6.00 Build 0)  -->
<!DOCTYPE svg PUBLIC "-//W3C//DTD SVG 1.1//EN" "http://www.w3.org/Graphics/SVG/1.1/DTD/svg11.dtd">
<svg version="1.1" id="Layer_1" xmlns="http://www.w3.org/2000/svg" xmlns:xlink="http://www.w3.org/1999/xlink" x="0px" y="0px"
	 width="32px" height="32px" viewBox="0 0 32 32" enable-background="new 0 0 32 32" xml:space="preserve">
<path fill="#FF6700" d="M23.023,29.006v-2.029H22.01v2.029h-1.014v-2.029H19.98v2.029h-0.951v-3.043h-1.014v3.043h-1.015v-2.029
	h-1.014v2.029h-0.951v-2.029h-1.014v2.029h-1.015v-3.043h-1.014v3.043h-1.014v-2.029H10.03v2.029H9.016v-2.029H8.001v2.029H6.988
	v-3.043H6.037v3.043H2.995V3.995l25.011,25.011H23.023z M6.988,13.584v11.365h11.364L6.988,13.584z"/>
</svg>
